X: 21
T: SCOTTISH
M: 4/4
L: 1/8
Q:1/4=80
K:C
|:cd/2e/2ff gga2|a/2g/2f/2e/2dc/2d/2 e/2d/2c/2B/2AG|cd/2e/2ff gga2|a/2g/
2f/2e/2dc/2d/2 e/2d/2c/2B/2c2:|!
|:G/2c/2e/2g/2f/2e/2d/2c/2 B/2c/2d/2f/2e/2g/2c/2e/2|G/2c/2e/2c/2dd/2c/2 
BA/2B/2c2:|
